X:375
T:Lamentarola
M:3/4
L:1/8
R:
K:F
|:"Dm"ag fe d^c | dA GF ED | "Gm"ba gf ed | "A7"^cA GA cG | ^FA c_e dc | BG FG DF |
|EG Bd cB | AF EF CE | DF BA BA | GE ^cG Ec | dA GA fd | e2 A4 :|
|: ed ^c=B Aa | fe de fc | dc =BA Gg | ed cd eB | cB AG Ff | dc Bc dA |
| BA GF Ee | ^c=B AB ^cA | d^c dA eA | fe fA Ge | "Dm"FE Fd "A"E^c | "Dm"d2 D4 :|
